X:1
T:Sonata in B minor, (K. 87)
T:Keyboard Sonata in B minor, K.87
T:Domenico Scarlatti
T:Editor: Kenneth Gilbert
T:from: Domenico Scarlatti: Sonates, Volume 2 (pp.110-111) Paris: Heugel, 1979 H. 32522 (imslp #353942)
C:Domenico Scarlatti
%%score { ( 1 2 5 ) | ( 3 4 ) }
L:1/8
M:3/4
K:D
V:1 treble nm="Piano" snm="Pno."
V:2 treble 
V:5 treble 
V:3 bass 
V:4 bass 
V:1
 F2 GF B2- | B2 ^ABcA | B6 | ^A2 z B c2 | d3 c B2- | B2 A^G F2- | F2 ^EF^GE | F4 c2- | cF B4- | %9
 B2 f4- | fB- B2 x2 | e2 ^defd | e6 | f2 ef g2 | f4- fe | d4- dc | B4 AG | FE D2 c2 | dc z fgf | %19
 edcB A2- | A2 G3 F | FE z F B2- | B2 ^ABcd | e2 ^defg | a2 z b2 ^a | bg f3 e | d2 c3 e | d2 c3 g | %28
 d2 c3 b | d2 cgf^e | f3 =e2 d | cfgfed | cB^A^GF^E | FC^A,F,[K:bass] F,,2 ::[K:treble] c2 dc f2- | %35
 f e2 d2 c | d4 B2- | B A2 G2 F | z ^A B3 c | d3 c B2 | z ^B c3 ^d | e=d c3 B | fe d3 c | %43
 b=a g3 f | gf e2 fe | d2 ed c2 | Bc d3 e | fe^dfe=d | ^cedcBd | cB^AcBc | dc B3 ^A | Bcd^def | %52
 gf e3 ^d | efg^g^ab | cd e3 d | cd e3 d | gb=agfa | gfegfe | d2 z c B2- | B2 ^ABcd | e2 d2 c2 | %61
 f2 e3 d | c3 d c2- | cd c3 d | e3 ^e f2- | fedcBd | c B2 c2 ^A | BGFEDC | DEDCB,^A, | %69
[K:bass] B,F,D,B,, B,,,2 :| %70
V:2
 z D4 E | F6 | z GFEFG | EF G3 F- | FD F3 ^E | F4- FB, | C6 | z DCDEC | D4- DE | F2 AGFA | x2 e4- | %11
 B6 | z =cBAB^c | d2 cd e2 | dedc B2 | AGFE D2- | DE F2 x2 | x2 x2 E2 | F2 B3 A | GFEDCB, | %20
 A,DB,C D2 | x x D3 E | F2 x2 x2 | B2 x2 x2 | e2 gf e2- | e2 dc B2 | B2 ^A3 c | B2 ^A3 c | %28
 B2 ^A3 B | B2 ^A2 B2 | z F^G^A B2- | B^AB=AGF | EDCB,^A,^G, | F,2 x4[K:bass] :: %34
[K:treble] z2 z2 z F | ^G2 ^A B2 A | z F G F2 E | F2 E2 x x | G3 F E2 | z ^E F3 ^G | A3 ^G F2 | %41
 E^G A3 G | F^A B3 A | B^d e3 d | e=d c2 dc | B2 cB ^A2 | B2 B4 | A=cBAGB | AGFAGF | EDCCDE | %50
 F2 GF E2 | F3 FG=A | B2 =cB A2 | B2 z2 z2 | z2 c3 B | ^AB c3 B | edcedc | BdcB^Ac | BFG F2 E | %59
 F2 x4 | c2 B2 ^A2 | z F^G^A B2 | ^A3 B A2- | AB ^A3 B | c3 B^A^G | F6 | G2 F2 E2- | EEDCB,^A, | %68
 B,2 x2 x2 |[K:bass] x6 :| %70
V:3
 z B,4 C | DB,CD E2- | E2 DC D2 | z2 E4 | D4- DC | DB, C3 ^G, | A,F, ^G,A, B,2- | B,2 ^A,B,CA, | %8
 B,4- B,C | DB, C2 ^D2 |[K:treble] E4- EF | GEFG A2- | A2 GF G2 | AB A2 GA | B3 A G2 | %15
[K:bass] FEDC B,A, | B,CDB, C2- | C3 B,2 ^A, | B,3 =A,G,A, | B,2 A,3 G, | x2 G,2 A,2 | %21
 ^A,2 B,=A,B,C | DB, CDEF |[K:treble] GE FGAB | =cA B2 x2 | B, B2 A G2 |[K:bass] F, F2 G, E2 | %27
 F, F2 G, E2 | F, F2 G, E2 | F, F2 EDC | D2 C2 B,2 | F,,2 z2 z2 | F,,2 z2 z2 | F,,2 z2 z2 :: %34
 z F2 E D2 | C2 F2 F,2 | z B,4 C | DB, C2 ^D2 | E3 =D C2 | D4- D^E | [CF]3 =E ^D2 | C3 =D E2 | %42
 D3 E F2 | G3 A B2- | B2 AG F2 | GF E2 FE | [DF][CE] [B,D][A,C] [G,B,]2 | %47
 [F,A,]2 [B,,B,]2 [E,,E,]2 | [A,,A,]2 D,2 [G,,G,-]2 | G,2 F,E,D,C, | B,,2 B,2 C2 | DCB,=A,G,F, | %52
 E,2 E2 F2 | x2 x2 E2- | EFGE F2 | E4 F2 | [E,E]2 [=A,,=A,]2 [D,,D,]2 | [G,,G,]2 [C,C]2 [F,,F,]2 | %58
 z B,4 C | DB,CDEF | GEFDEC | D2 C2 B,2 | F,F G3 F | E3 D C2- | CB,^A,^G,F,E, | x2 B,A,G,F, | %66
 z E D2 C2 | B,,6 | z G,F,E,D,C, | B,,2 z2 z2 :| %70
V:4
 B,3 A, G,2 | F,6 | B,6 | CD E2 ^A,2 | B,3 =A, ^G,2 | F,3 E, D,2 | C,6 | F,6 | B,3 =A, G,2 | %9
 F,4 B,2 |[K:treble] E3 D =C2 | B,6 | E6 | FG A2 x2 | x6 |[K:bass] x6 | G,2 F,3 E, | D,4 C,2 | %18
 B,,C, D,2 E,F, | G,2 x3 x | F,2 E,2 D,2 | C,2 B,,2 G,2 | F,6 |[K:treble] B,6 | E3 D C2 | x6 | %26
[K:bass] x6 | x6 | x6 | x6 | x6 | x6 | x6 | x6 :: x6 | x6 | B,, B,2 A, G,2 | F,4 B,2 | x6 | %39
 B,3 A, ^G,2 | F,2 x2 x2 | x6 | x6 | x2 x2 B,2 | E2 A,2 D2 | G,2 C2 F,2 | x6 | x6 | x6 | %49
 C,2 F,,2 x2 | x6 | x6 | x6 | GF E=D CB, | ^A,4 B,2 | CB,^A,F, B,2 | x6 | x6 | B,, B,2 A, G,2 | %59
 F,6 | F,6 | F,6 | x6 | x6 | x6 | D,C, B,,2 x2 | E,2 F,4 | x6 | B,,6 | x6 :| %70
V:5
 x6 | x6 | x6 | x6 | x6 | x6 | x6 | x6 | x6 | x6 | G4- GA | x6 | x6 | x6 | x6 | x6 | x6 | x6 | x6 | %19
 x6 | x6 | x6 | x6 | x6 | x6 | x6 | x6 | x6 | x6 | x6 | x6 | x6 | x6 | x4[K:bass] x2 :: %34
[K:treble] x6 | x6 | x6 | x6 | x6 | x6 | x6 | x6 | x6 | x6 | x6 | x6 | x6 | x6 | x6 | x6 | x6 | %51
 x6 | x6 | x6 | x6 | x6 | x6 | x6 | x6 | x6 | x6 | x6 | x6 | x6 | x6 | x6 | x6 | x6 | x6 | %69
[K:bass] x6 :| %70

